X:7
T:Rigs of Doom (Bampton) (Utrecht)
M:C
L:1/4
S:Utrecht MM (Holland)
C:Frans Tromp
O:England; Oxfordshire; Bampton.
K:G
P:A
A/ | B/A/ G/F/ G D | E/F/ G/E/ D2 | E/F/ G/E/ D/G/ A/B/ | B/A/ G/B/ A>B |
B/A/ G/F/ G D | E/F/ G/E/ D2 | E/F/ G/A/ A3/2 G/4F/4 | G2 G3/2 |]
P:B
A/ | B/c/ B/G/ A A | G/A/ G/E/ F2 | G B c>B | A/G/ F/E/ D>B |
c/d/ e/c/ d B | c/d/ e/c/ B2 | c>A B/A/ G/B/ | A F G |]
P:C
B/d/ | e e B2 | c/B/ A/c/ B2 | c/B/ A/c/ B/A/ G/B/ | A/G/ F/G/ A>d |
e e B2 | c/B/ A/c/ B2 | c/B/ A/c/ B/A/ G/B/ | A/D/ E/F/ G3/2 |]

